src/topics/icons/elementary.svg

<svg height="256" preserveAspectRatio="xMidYMid" viewBox="0 0 256 256" width="256" xmlns="http://www.w3.org/2000/svg"><path d="m128 0c-70.6925714 0-128 57.3074286-128 128 0 70.692571 57.3074286 128 128 128 70.692571 0 128-57.307429 128-128 0-70.6925714-57.307429-128-128-128zm0 10.6605714c53.741714 0 99.053714 36.1142857 112.941714 85.3942857-11.931428 24.6857139-28.982857 46.9028569-49.691428 64.8777139-9.965715 8.621715-20.845715 16.310858-32.859429 21.723429s-25.234286 8.484571-38.4 7.734857c-9.874286-.576-19.657143-3.328-28.2879999-8.137143 22.9485719-12.434285 43.6388569-29.001143 60.5805719-48.841143 11.154285-13.028571 20.845714-27.84 24.594285-44.5531424 1.901715-8.3565715 2.194286-17.0971429.457143-25.4902857-1.737143-8.3931429-5.613714-16.3657143-11.483428-22.6194286-5.732572-6.0891429-13.257143-10.4228572-21.321143-12.6354286-8.045715-2.2217143-16.64-2.3954286-24.868572-.896-16.457143 3.0171429-31.1771426 12.5805714-42.9439997 24.4571429-20.7817143 20.9371428-33.6274286 50.4868574-31.2685714 79.8902854 1.1885714 14.701715 6.1074285 29.147429 14.5371428 41.234286 1.8925714 2.706286 3.968 5.275429 6.1805714 7.707429-12.2971428 4.324571-25.0514285 7.387428-37.9428571 9.115428-11.0902857-17.92-17.4994286-39.04-17.4994286-61.650286 0-64.8228567 52.5165715-117.3394281 117.3211426-117.3394281zm.731429 23.68c8.265142 0 16.566857 2.5051429 23.149714 7.4971429 5.924571 4.48 10.331428 10.8251428 12.8 17.8285714 2.496 7.0034286 3.136 14.6011429 2.285714 21.9885714-1.691428 14.7657143-9.142857 28.3062859-18.139428 40.1371429-15.936 20.937143-37.12 37.696-60.6720004 49.435429-2.4045715 1.188571-4.8457143 2.340571-7.3142857 3.437714-5.12-4.48-9.5085715-9.782857-12.8731429-15.725714-6.9942857-12.397715-9.2982857-27.108572-7.9542857-41.270858 1.3714286-14.171428 6.2171428-27.812571 12.7542857-40.4571424 7.5702857-14.656 17.8925714-28.5257143 32.338286-36.5074286 7.222857-3.9954286 15.387428-6.4 23.634285-6.4zm115.547428 77.9154286c.685714 5.138286 1.051429 10.377143 1.051429 15.707429 0 64.804571-52.498286 117.339428-117.302857 117.339428-36.3885719 0-68.9371433-16.566857-90.4228576-42.578286 13.2754286-3.017142 26.2582857-7.36 38.7108572-12.873142 5.4582857 4.132571 11.4651428 7.533714 17.8651428 9.984 18.4045716 7.058285 39.3142856 6.034285 57.9474286-.411429 18.624-6.454857 35.154286-18.011429 49.554286-31.497143 17.161143-16.036571 31.634285-34.944 42.642285-55.68z" fill="#333"/></svg>

<?xml version="1.0" encoding="UTF-8" standalone="no"?>
<svg width="256px" height="256px" viewBox="0 0 256 256" version="1.1" xmlns="http://www.w3.org/2000/svg" xmlns:xlink="http://www.w3.org/1999/xlink" preserveAspectRatio="xMidYMid">
    <g>
        <path d="M128,8.12048841e-15 C57.3074286,8.12048841e-15 0,57.3074286 0,128 C0,198.692571 57.3074286,256 128,256 C198.692571,256 256,198.692571 256,128 C256,57.3074286 198.692571,0 128,0 L128,8.12048841e-15 Z M128,10.6605714 C181.741714,10.6605714 227.053714,46.7748571 240.941714,96.0548571 C229.010286,120.740571 211.958857,142.957714 191.250286,160.932571 C181.284571,169.554286 170.404571,177.243429 158.390857,182.656 C146.377143,188.068571 133.156571,191.140571 119.990857,190.390857 C110.116571,189.814857 100.333714,187.062857 91.7028571,182.253714 C114.651429,169.819429 135.341714,153.252571 152.283429,133.412571 C163.437714,120.384 173.129143,105.572571 176.877714,88.8594286 C178.779429,80.5028571 179.072,71.7622857 177.334857,63.3691429 C175.597714,54.976 171.721143,47.0034286 165.851429,40.7497143 C160.118857,34.6605714 152.594286,30.3268571 144.530286,28.1142857 C136.484571,25.8925714 127.890286,25.7188571 119.661714,27.2182857 C103.204571,30.2354286 88.4845714,39.7988571 76.7177143,51.6754286 C55.936,72.6125714 43.0902857,102.162286 45.4491429,131.565714 C46.6377143,146.267429 51.5565714,160.713143 59.9862857,172.8 C61.8788571,175.506286 63.9542857,178.075429 66.1668571,180.507429 C53.8697143,184.832 41.1154286,187.894857 28.224,189.622857 C17.1337143,171.702857 10.7245714,150.582857 10.7245714,127.972571 C10.7245714,63.1497143 63.2411429,10.6331429 128.045714,10.6331429 L128,10.6605714 Z M128.731429,34.3405714 C136.996571,34.3405714 145.298286,36.8457143 151.881143,41.8377143 C157.805714,46.3177143 162.212571,52.6628571 164.681143,59.6662857 C167.177143,66.6697143 167.817143,74.2674286 166.966857,81.6548571 C165.275429,96.4205714 157.824,109.961143 148.827429,121.792 C132.891429,142.729143 111.707429,159.488 88.1554286,171.227429 C85.7508571,172.416 83.3097143,173.568 80.8411429,174.665143 C75.7211429,170.185143 71.3325714,164.882286 67.968,158.939429 C60.9737143,146.541714 58.6697143,131.830857 60.0137143,117.668571 C61.3851429,103.497143 66.2308571,89.856 72.768,77.2114286 C80.3382857,62.5554286 90.6605714,48.6857143 105.106286,40.704 C112.329143,36.7085714 120.493714,34.304 128.740571,34.304 L128.731429,34.3405714 Z M244.278857,112.256 C244.964571,117.394286 245.330286,122.633143 245.330286,127.963429 C245.330286,192.768 192.832,245.302857 128.027429,245.302857 C91.6388571,245.302857 59.0902857,228.736 37.6045714,202.724571 C50.88,199.707429 63.8628571,195.364571 76.3154286,189.851429 C81.7737143,193.984 87.7805714,197.385143 94.1805714,199.835429 C112.585143,206.893714 133.494857,205.869714 152.128,199.424 C170.752,192.969143 187.282286,181.412571 201.682286,167.926857 C218.843429,151.890286 233.316571,132.982857 244.324571,112.246857 L244.278857,112.256 Z" fill="#333333"></path>
    </g>
</svg>
